phase.svg

<?xml version="1.0" encoding="UTF-8" standalone="no"?>
<!-- Generated by graphviz version 10.0.1 (20240210.2158)
 -->

<!-- Title: phase Pages: 1 -->

<svg
   width="400"
   height="200"
   viewBox="0 0 300 149.99024"
   version="1.1"
   id="svg26"
   sodipodi:docname="phase.svg"
   inkscape:version="1.3.2 (091e20e, 2023-11-25)"
   xmlns:inkscape="http://www.inkscape.org/namespaces/inkscape"
   xmlns:sodipodi="http://sodipodi.sourceforge.net/DTD/sodipodi-0.dtd"
   xmlns="http://www.w3.org/2000/svg"
   xmlns:svg="http://www.w3.org/2000/svg">
  <defs
     id="defs26" />
  <sodipodi:namedview
     id="namedview26"
     pagecolor="#ffffff"
     bordercolor="#000000"
     borderopacity="0.25"
     inkscape:showpageshadow="2"
     inkscape:pageopacity="0.0"
     inkscape:pagecheckerboard="0"
     inkscape:deskcolor="#d1d1d1"
     inkscape:document-units="pt"
     showguides="false"
     inkscape:zoom="1.0070671"
     inkscape:cx="377.33333"
     inkscape:cy="307.32807"
     inkscape:window-width="2016"
     inkscape:window-height="1328"
     inkscape:window-x="0"
     inkscape:window-y="25"
     inkscape:window-maximized="0"
     inkscape:current-layer="svg26" />
  <g
     id="graph0"
     class="graph"
     transform="matrix(0.30984457,0,0,0.30984457,57.094643,144.56861)">
    <title
       id="title1">phase</title>
    <polygon
       fill="#ffffff"
       stroke="none"
       points="562,-456.97 562,4 -4,4 -4,-456.97 "
       id="polygon1" />
    <g
       id="clust1"
       class="cluster">
      <title
         id="title2">cluster_frontend</title>
      <polygon
         fill="#e0ffff"
         stroke="#000000"
         stroke-dasharray="5, 2"
         points="240,-335.98 240,-97.49 8,-97.49 8,-335.98 "
         id="polygon2" />
      <text
         text-anchor="middle"
         x="43.380001"
         y="-318.67999"
         font-family="Times, serif"
         font-size="14px"
         id="text2">Front End</text>
    </g>
    <g
       id="clust3"
       class="cluster">
      <title
         id="title3">cluster_backend</title>
      <polygon
         fill="#ffffe0"
         stroke="#000000"
         stroke-dasharray="5, 2"
         points="550,-444.97 550,-181.48 318,-181.48 318,-444.97 "
         id="polygon3" />
      <text
         text-anchor="middle"
         x="352.62"
         y="-427.67001"
         font-family="Times, serif"
         font-size="14px"
         id="text3">Back End</text>
    </g>
    <!-- file -->
    <g
       id="node1"
       class="node">
      <title
         id="title4">file</title>
      <ellipse
         fill="none"
         stroke="#000000"
         cx="162"
         cy="-391.97"
         rx="108"
         ry="28.99"
         id="ellipse4" />
      <text
         text-anchor="middle"
         x="162"
         y="-395.17001"
         font-family="Times, serif"
         font-size="14px"
         id="text4">Source Code</text>
      <text
         text-anchor="middle"
         x="162"
         y="-378.67001"
         font-family="Times, serif"
         font-size="14px"
         id="text5">hello.pas</text>
    </g>
    <!-- lexical -->
    <g
       id="node2"
       class="node">
      <title
         id="title5">lexical</title>
      <polygon
         fill="none"
         stroke="#000000"
         points="16,-267.48 232,-267.48 232,-303.48 16,-303.48 "
         id="polygon5" />
      <text
         text-anchor="middle"
         x="124"
         y="-280.42999"
         font-family="Times, serif"
         font-size="14px"
         id="text6">Lexical Analysis</text>
    </g>
    <!-- file&#45;&gt;lexical -->
    <g
       id="edge1"
       class="edge">
      <title
         id="title6">file-&gt;lexical</title>
      <path
         fill="none"
         stroke="#000000"
         d="m 151.72,-362.7 c -5.43,14.93 -12.08,33.2 -17.5,48.1"
         id="path6" />
      <polygon
         fill="#000000"
         stroke="#000000"
         points="131,-315.98 137.58,-313.59 130.87,-305.38 "
         id="polygon6" />
      <text
         text-anchor="middle"
         x="192.75"
         y="-339.42999"
         font-family="Times, serif"
         font-size="14px"
         id="text7">character stream</text>
    </g>
    <!-- symtab -->
    <g
       id="node6"
       class="node">
      <title
         id="title7">symtab</title>
      <polygon
         fill="none"
         stroke="#a0522d"
         points="328,-61.5 316,-61.5 316,0 532,0 532,-57.5 328,-57.5 "
         id="polygon7" />
      <polyline
         fill="none"
         stroke="#a0522d"
         points="316,-57.5 328,-57.5"
         id="polyline7" />
      <text
         text-anchor="middle"
         x="424"
         y="-40.200001"
         font-family="Times, serif"
         font-size="14px"
         id="text8">Symbol Table</text>
      <text
         text-anchor="middle"
         x="424"
         y="-23.700001"
         font-family="Times, serif"
         font-size="14px"
         id="text9">- var counter: 1</text>
      <text
         text-anchor="middle"
         x="424"
         y="-7.1999998"
         font-family="Times, serif"
         font-size="14px"
         id="text10">- const msg: &quot;text&quot;</text>
    </g>
    <!-- file&#45;&gt;symtab -->
    <!-- syntax -->
    <g
       id="node3"
       class="node">
      <title
         id="title10">syntax</title>
      <polygon
         fill="none"
         stroke="#000000"
         points="16,-191.98 232,-191.98 232,-227.98 16,-227.98 "
         id="polygon10" />
      <text
         text-anchor="middle"
         x="124"
         y="-204.92999"
         font-family="Times, serif"
         font-size="14px"
         id="text11">Syntax Analysis</text>
    </g>
    <!-- lexical&#45;&gt;syntax -->
    <g
       id="edge2"
       class="edge">
      <title
         id="title11">lexical-&gt;syntax</title>
      <path
         fill="none"
         stroke="#000000"
         d="m 124,-267.06 c 0,8.14 0,18.06 0,27.28"
         id="path11" />
      <polygon
         fill="#000000"
         stroke="#000000"
         points="120.5,-239.79 127.5,-239.79 124,-229.79 "
         id="polygon11" />
      <text
         text-anchor="middle"
         x="163"
         y="-243.92999"
         font-family="Times, serif"
         font-size="14px"
         id="text12">token stream</text>
    </g>
    <!-- semantic -->
    <g
       id="node4"
       class="node">
      <title
         id="title12">semantic</title>
      <polygon
         fill="none"
         stroke="#000000"
         points="16,-105.49 232,-105.49 232,-141.49 16,-141.49 "
         id="polygon12" />
      <text
         text-anchor="middle"
         x="124"
         y="-118.44"
         font-family="Times, serif"
         font-size="14px"
         id="text13">Semantic Analysis</text>
    </g>
    <!-- syntax&#45;&gt;semantic -->
    <g
       id="edge3"
       class="edge">
      <title
         id="title13">syntax-&gt;semantic</title>
      <path
         fill="none"
         stroke="#000000"
         d="m 124,-191.88 c 0,11.14 0,25.97 0,38.87"
         id="path13" />
      <polygon
         fill="#000000"
         stroke="#000000"
         points="120.5,-153.37 127.5,-153.37 124,-143.37 "
         id="polygon13" />
      <text
         text-anchor="middle"
         x="157.38"
         y="-165.92999"
         font-family="Times, serif"
         font-size="14px"
         id="text14">syntax tree</text>
    </g>
    <!-- ir -->
    <g
       id="node5"
       class="node">
      <title
         id="title14">ir</title>
      <polygon
         fill="none"
         stroke="#8b1a1a"
         points="73,-16.75 289,-16.75 289,-40.75 73,-40.75 "
         id="polygon14" />
      <polyline
         fill="none"
         stroke="#8b1a1a"
         points="76,-30.25 79,-27.25"
         id="polyline14" />
      <polyline
         fill="none"
         stroke="#8b1a1a"
         points="76,-27.25 79,-30.25"
         id="polyline15" />
      <polyline
         fill="none"
         stroke="#8b1a1a"
         points="76,-19.75 286,-19.75"
         id="polyline16" />
      <text
         text-anchor="middle"
         x="181"
         y="-23.700001"
         font-family="Times, serif"
         font-size="14px"
         id="text16">Intermediate Code Generation</text>
    </g>
    <!-- semantic&#45;&gt;ir -->
    <g
       id="edge4"
       class="edge">
      <title
         id="title16">semantic-&gt;ir</title>
      <path
         fill="none"
         stroke="#000000"
         d="m 134.72,-105.05 c 8.36,13.6 20.12,32.73 29.69,48.31"
         id="path16" />
      <polygon
         fill="#000000"
         stroke="#000000"
         points="161.32,-55.09 167.28,-58.76 169.53,-48.41 "
         id="polygon16" />
      <text
         text-anchor="middle"
         x="230"
         y="-70.949997"
         font-family="Times, serif"
         font-size="14px"
         id="text17">intermediate representation</text>
    </g>
    <!-- opt1 -->
    <g
       id="node8"
       class="node">
      <title
         id="title17">opt1</title>
      <polygon
         fill="none"
         stroke="#000000"
         points="326,-371.47 542,-371.47 542,-412.47 326,-412.47 "
         id="polygon17" />
      <text
         text-anchor="middle"
         x="434"
         y="-395.17001"
         font-family="Times, serif"
         font-size="14px"
         id="text18">Machine-Indenpendent</text>
      <text
         text-anchor="middle"
         x="434"
         y="-378.67001"
         font-family="Times, serif"
         font-size="14px"
         id="text19">Code Optimization</text>
    </g>
    <!-- ir&#45;&gt;opt1 -->
    <g
       id="edge7"
       class="edge">
      <title
         id="title19">ir-&gt;opt1</title>
      <path
         fill="none"
         stroke="#000000"
         d="m 230.96,-47.11 c 31.8,-14.59 67.04,-38.96 67.04,-75.38 0,-163.99 0,-163.99 0,-163.99 0,-23.57 2.96,-32.24 19,-49.5 11.66,-12.54 26.76,-22.49 42.21,-30.28"
         id="path19" />
      <polygon
         fill="#000000"
         stroke="#000000"
         points="360.48,-362.99 357.48,-369.32 368.02,-370.43 "
         id="polygon19" />
    </g>
    <!-- bin -->
    <g
       id="node7"
       class="node">
      <title
         id="title20">bin</title>
      <ellipse
         fill="none"
         stroke="#000000"
         cx="434"
         cy="-123.49"
         rx="108"
         ry="28.99"
         id="ellipse20" />
      <text
         text-anchor="middle"
         x="434"
         y="-126.69"
         font-family="Times, serif"
         font-size="14px"
         id="text20">Executable Binary</text>
      <text
         text-anchor="middle"
         x="434"
         y="-110.19"
         font-family="Times, serif"
         font-size="14px"
         id="text21">a.out</text>
    </g>
    <!-- bin&#45;&gt;symtab -->
    <!-- target -->
    <g
       id="node9"
       class="node">
      <title
         id="title21">target</title>
      <polygon
         fill="none"
         stroke="#000000"
         points="326,-267.48 542,-267.48 542,-303.48 326,-303.48 "
         id="polygon21" />
      <text
         text-anchor="middle"
         x="434"
         y="-280.42999"
         font-family="Times, serif"
         font-size="14px"
         id="text22">Target Code Generation</text>
    </g>
    <!-- opt1&#45;&gt;target -->
    <g
       id="edge8"
       class="edge">
      <title
         id="title22">opt1-&gt;target</title>
      <path
         fill="none"
         stroke="#000000"
         d="m 434,-371.32 c 0,15.75 0,38.09 0,55.89"
         id="path22" />
      <polygon
         fill="#000000"
         stroke="#000000"
         points="430.5,-315.48 437.5,-315.48 434,-305.48 "
         id="polygon22" />
      <text
         text-anchor="middle"
         x="493.25"
         y="-339.42999"
         font-family="Times, serif"
         font-size="14px"
         id="text23">target-machine code</text>
    </g>
    <!-- opt2 -->
    <g
       id="node10"
       class="node">
      <title
         id="title23">opt2</title>
      <polygon
         fill="none"
         stroke="#000000"
         points="326,-189.48 542,-189.48 542,-230.48 326,-230.48 "
         id="polygon23" />
      <text
         text-anchor="middle"
         x="434"
         y="-213.17999"
         font-family="Times, serif"
         font-size="14px"
         id="text24">Machine-Denpendent</text>
      <text
         text-anchor="middle"
         x="434"
         y="-196.67999"
         font-family="Times, serif"
         font-size="14px"
         id="text25">Code Optimization</text>
    </g>
    <!-- target&#45;&gt;opt2 -->
    <g
       id="edge9"
       class="edge">
      <title
         id="title25">target-&gt;opt2</title>
      <path
         fill="none"
         stroke="#000000"
         d="m 434,-267.06 c 0,7.38 0,16.23 0,24.68"
         id="path25" />
      <polygon
         fill="#000000"
         stroke="#000000"
         points="430.5,-242.39 437.5,-242.39 434,-232.39 "
         id="polygon25" />
      <text
         text-anchor="middle"
         x="493.25"
         y="-243.92999"
         font-family="Times, serif"
         font-size="14px"
         id="text26">target-machine code</text>
    </g>
    <!-- opt2&#45;&gt;bin -->
    <g
       id="edge10"
       class="edge">
      <title
         id="title26">opt2-&gt;bin</title>
      <path
         fill="none"
         stroke="#000000"
         d="m 434,-189.39 c 0,7.53 0,16.41 0,25.16"
         id="path26" />
      <polygon
         fill="#000000"
         stroke="#000000"
         points="430.5,-164.46 437.5,-164.46 434,-154.46 "
         id="polygon26" />
    </g>
  </g>
</svg>

<?xml version="1.0" encoding="UTF-8" standalone="no"?>
<!DOCTYPE svg PUBLIC "-//W3C//DTD SVG 1.1//EN"
 "http://www.w3.org/Graphics/SVG/1.1/DTD/svg11.dtd">
<!-- Generated by graphviz version 10.0.1 (20240210.2158)
 -->
<!-- Title: phase Pages: 1 -->
<svg width="566pt" height="461pt"
 viewBox="0.00 0.00 566.00 460.97" xmlns="http://www.w3.org/2000/svg" xmlns:xlink="http://www.w3.org/1999/xlink">
<g id="graph0" class="graph" transform="scale(1 1) rotate(0) translate(4 456.97)">
<title>phase</title>
<polygon fill="white" stroke="none" points="-4,4 -4,-456.97 562,-456.97 562,4 -4,4"/>
<g id="clust1" class="cluster">
<title>cluster_frontend</title>
<polygon fill="lightcyan" stroke="black" stroke-dasharray="5,2" points="8,-97.49 8,-335.98 240,-335.98 240,-97.49 8,-97.49"/>
<text text-anchor="middle" x="43.38" y="-318.68" font-family="Times,serif" font-size="14.00">Front End</text>
</g>
<g id="clust3" class="cluster">
<title>cluster_backend</title>
<polygon fill="lightyellow" stroke="black" stroke-dasharray="5,2" points="318,-181.48 318,-444.97 550,-444.97 550,-181.48 318,-181.48"/>
<text text-anchor="middle" x="352.62" y="-427.67" font-family="Times,serif" font-size="14.00">Back End</text>
</g>
<!-- file -->
<g id="node1" class="node">
<title>file</title>
<ellipse fill="none" stroke="black" cx="162" cy="-391.97" rx="108" ry="28.99"/>
<text text-anchor="middle" x="162" y="-395.17" font-family="Times,serif" font-size="14.00">Source Code</text>
<text text-anchor="middle" x="162" y="-378.67" font-family="Times,serif" font-size="14.00">hello.pas</text>
</g>
<!-- lexical -->
<g id="node2" class="node">
<title>lexical</title>
<polygon fill="none" stroke="black" points="232,-303.48 16,-303.48 16,-267.48 232,-267.48 232,-303.48"/>
<text text-anchor="middle" x="124" y="-280.43" font-family="Times,serif" font-size="14.00">Lexical Analysis</text>
</g>
<!-- file&#45;&gt;lexical -->
<g id="edge1" class="edge">
<title>file&#45;&gt;lexical</title>
<path fill="none" stroke="black" d="M151.72,-362.7C146.29,-347.77 139.64,-329.5 134.22,-314.6"/>
<polygon fill="black" stroke="black" points="137.58,-313.59 130.87,-305.38 131,-315.98 137.58,-313.59"/>
<text text-anchor="middle" x="192.75" y="-339.43" font-family="Times,serif" font-size="14.00"> character stream </text>
</g>
<!-- symtab -->
<g id="node6" class="node">
<title>symtab</title>
<polygon fill="none" stroke="sienna" points="532,-57.5 328,-57.5 328,-61.5 316,-61.5 316,0 532,0 532,-57.5"/>
<polyline fill="none" stroke="sienna" points="316,-57.5 328,-57.5"/>
<text text-anchor="middle" x="424" y="-40.2" font-family="Times,serif" font-size="14.00">Symbol Table</text>
<text text-anchor="middle" x="424" y="-23.7" font-family="Times,serif" font-size="14.00">&#45; var counter: 1</text>
<text text-anchor="middle" x="424" y="-7.2" font-family="Times,serif" font-size="14.00">&#45; const msg: &quot;text&quot;</text>
</g>
<!-- file&#45;&gt;symtab -->
<!-- syntax -->
<g id="node3" class="node">
<title>syntax</title>
<polygon fill="none" stroke="black" points="232,-227.98 16,-227.98 16,-191.98 232,-191.98 232,-227.98"/>
<text text-anchor="middle" x="124" y="-204.93" font-family="Times,serif" font-size="14.00">Syntax Analysis</text>
</g>
<!-- lexical&#45;&gt;syntax -->
<g id="edge2" class="edge">
<title>lexical&#45;&gt;syntax</title>
<path fill="none" stroke="black" d="M124,-267.06C124,-258.92 124,-249 124,-239.78"/>
<polygon fill="black" stroke="black" points="127.5,-239.79 124,-229.79 120.5,-239.79 127.5,-239.79"/>
<text text-anchor="middle" x="163" y="-243.93" font-family="Times,serif" font-size="14.00"> token stream </text>
</g>
<!-- semantic -->
<g id="node4" class="node">
<title>semantic</title>
<polygon fill="none" stroke="black" points="232,-141.49 16,-141.49 16,-105.49 232,-105.49 232,-141.49"/>
<text text-anchor="middle" x="124" y="-118.44" font-family="Times,serif" font-size="14.00">Semantic Analysis</text>
</g>
<!-- syntax&#45;&gt;semantic -->
<g id="edge3" class="edge">
<title>syntax&#45;&gt;semantic</title>
<path fill="none" stroke="black" d="M124,-191.88C124,-180.74 124,-165.91 124,-153.01"/>
<polygon fill="black" stroke="black" points="127.5,-153.37 124,-143.37 120.5,-153.37 127.5,-153.37"/>
<text text-anchor="middle" x="157.38" y="-165.93" font-family="Times,serif" font-size="14.00"> syntax tree </text>
</g>
<!-- ir -->
<g id="node5" class="node">
<title>ir</title>
<polygon fill="none" stroke="#8b1a1a" points="289,-40.75 73,-40.75 73,-16.75 289,-16.75 289,-40.75"/>
<polyline fill="none" stroke="#8b1a1a" points="76,-30.25 79,-27.25"/>
<polyline fill="none" stroke="#8b1a1a" points="76,-27.25 79,-30.25"/>
<polyline fill="none" stroke="#8b1a1a" points="76,-19.75 286,-19.75"/>
<text text-anchor="middle" x="181" y="-23.7" font-family="Times,serif" font-size="14.00">Intermediate Code Generation</text>
</g>
<!-- semantic&#45;&gt;ir -->
<g id="edge4" class="edge">
<title>semantic&#45;&gt;ir</title>
<path fill="none" stroke="black" d="M134.72,-105.05C143.08,-91.45 154.84,-72.32 164.41,-56.74"/>
<polygon fill="black" stroke="black" points="167.28,-58.76 169.53,-48.41 161.32,-55.09 167.28,-58.76"/>
<text text-anchor="middle" x="230" y="-70.95" font-family="Times,serif" font-size="14.00"> intermediate representation </text>
</g>
<!-- opt1 -->
<g id="node8" class="node">
<title>opt1</title>
<polygon fill="none" stroke="black" points="542,-412.47 326,-412.47 326,-371.47 542,-371.47 542,-412.47"/>
<text text-anchor="middle" x="434" y="-395.17" font-family="Times,serif" font-size="14.00">Machine&#45;Indenpendent</text>
<text text-anchor="middle" x="434" y="-378.67" font-family="Times,serif" font-size="14.00">Code Optimization</text>
</g>
<!-- ir&#45;&gt;opt1 -->
<g id="edge7" class="edge">
<title>ir&#45;&gt;opt1</title>
<path fill="none" stroke="black" d="M230.96,-47.11C262.76,-61.7 298,-86.07 298,-122.49 298,-286.48 298,-286.48 298,-286.48 298,-310.05 300.96,-318.72 317,-335.98 328.66,-348.52 343.76,-358.47 359.21,-366.26"/>
<polygon fill="black" stroke="black" points="357.48,-369.32 368.02,-370.43 360.48,-362.99 357.48,-369.32"/>
</g>
<!-- bin -->
<g id="node7" class="node">
<title>bin</title>
<ellipse fill="none" stroke="black" cx="434" cy="-123.49" rx="108" ry="28.99"/>
<text text-anchor="middle" x="434" y="-126.69" font-family="Times,serif" font-size="14.00">Executable Binary</text>
<text text-anchor="middle" x="434" y="-110.19" font-family="Times,serif" font-size="14.00">a.out</text>
</g>
<!-- bin&#45;&gt;symtab -->
<!-- target -->
<g id="node9" class="node">
<title>target</title>
<polygon fill="none" stroke="black" points="542,-303.48 326,-303.48 326,-267.48 542,-267.48 542,-303.48"/>
<text text-anchor="middle" x="434" y="-280.43" font-family="Times,serif" font-size="14.00">Target Code Generation</text>
</g>
<!-- opt1&#45;&gt;target -->
<g id="edge8" class="edge">
<title>opt1&#45;&gt;target</title>
<path fill="none" stroke="black" d="M434,-371.32C434,-355.57 434,-333.23 434,-315.43"/>
<polygon fill="black" stroke="black" points="437.5,-315.48 434,-305.48 430.5,-315.48 437.5,-315.48"/>
<text text-anchor="middle" x="493.25" y="-339.43" font-family="Times,serif" font-size="14.00"> target&#45;machine code </text>
</g>
<!-- opt2 -->
<g id="node10" class="node">
<title>opt2</title>
<polygon fill="none" stroke="black" points="542,-230.48 326,-230.48 326,-189.48 542,-189.48 542,-230.48"/>
<text text-anchor="middle" x="434" y="-213.18" font-family="Times,serif" font-size="14.00">Machine&#45;Denpendent</text>
<text text-anchor="middle" x="434" y="-196.68" font-family="Times,serif" font-size="14.00">Code Optimization</text>
</g>
<!-- target&#45;&gt;opt2 -->
<g id="edge9" class="edge">
<title>target&#45;&gt;opt2</title>
<path fill="none" stroke="black" d="M434,-267.06C434,-259.68 434,-250.83 434,-242.38"/>
<polygon fill="black" stroke="black" points="437.5,-242.39 434,-232.39 430.5,-242.39 437.5,-242.39"/>
<text text-anchor="middle" x="493.25" y="-243.93" font-family="Times,serif" font-size="14.00"> target&#45;machine code </text>
</g>
<!-- opt2&#45;&gt;bin -->
<g id="edge10" class="edge">
<title>opt2&#45;&gt;bin</title>
<path fill="none" stroke="black" d="M434,-189.39C434,-181.86 434,-172.98 434,-164.23"/>
<polygon fill="black" stroke="black" points="437.5,-164.46 434,-154.46 430.5,-164.46 437.5,-164.46"/>
</g>
</g>
</svg>
